images/50564505.svg

<?xml version="1.0" encoding="UTF-8"?>
<svg xmlns="http://www.w3.org/2000/svg" xmlns:xlink="http://www.w3.org/1999/xlink" width="300pt" height="300pt" viewBox="0 0 300 300" version="1.1">
<defs>
<g>
<symbol overflow="visible" id="glyph0-0">
<path style="stroke:none;" d="M 0.453125 1.59375 L 0.453125 -6.34375 L 4.953125 -6.34375 L 4.953125 1.59375 Z M 0.953125 1.09375 L 4.453125 1.09375 L 4.453125 -5.84375 L 0.953125 -5.84375 Z M 0.953125 1.09375 "/>
</symbol>
<symbol overflow="visible" id="glyph0-1">
<path style="stroke:none;" d="M 0.890625 -6.5625 L 4.65625 -6.5625 L 4.65625 -5.8125 L 1.765625 -5.8125 L 1.765625 -3.875 L 4.375 -3.875 L 4.375 -3.140625 L 1.765625 -3.140625 L 1.765625 0 L 0.890625 0 Z M 0.890625 -6.5625 "/>
</symbol>
<symbol overflow="visible" id="glyph0-2">
<path style="stroke:none;" d="M 0.890625 -6.5625 L 2.078125 -6.5625 L 4.984375 -1.078125 L 4.984375 -6.5625 L 5.84375 -6.5625 L 5.84375 0 L 4.65625 0 L 1.75 -5.484375 L 1.75 0 L 0.890625 0 Z M 0.890625 -6.5625 "/>
</symbol>
<symbol overflow="visible" id="glyph0-3">
<path style="stroke:none;" d="M 0.890625 -6.5625 L 1.765625 -6.5625 L 1.765625 -3.875 L 5 -3.875 L 5 -6.5625 L 5.890625 -6.5625 L 5.890625 0 L 5 0 L 5 -3.125 L 1.765625 -3.125 L 1.765625 0 L 0.890625 0 Z M 0.890625 -6.5625 "/>
</symbol>
<symbol overflow="visible" id="glyph0-4">
<path style="stroke:none;" d="M 3.546875 -5.953125 C 2.898438 -5.953125 2.382812 -5.710938 2 -5.234375 C 1.625 -4.753906 1.4375 -4.101562 1.4375 -3.28125 C 1.4375 -2.445312 1.625 -1.789062 2 -1.3125 C 2.382812 -0.832031 2.898438 -0.59375 3.546875 -0.59375 C 4.191406 -0.59375 4.703125 -0.832031 5.078125 -1.3125 C 5.453125 -1.789062 5.640625 -2.445312 5.640625 -3.28125 C 5.640625 -4.101562 5.453125 -4.753906 5.078125 -5.234375 C 4.703125 -5.710938 4.191406 -5.953125 3.546875 -5.953125 Z M 3.546875 -6.6875 C 4.460938 -6.6875 5.195312 -6.375 5.75 -5.75 C 6.300781 -5.132812 6.578125 -4.3125 6.578125 -3.28125 C 6.578125 -2.238281 6.300781 -1.410156 5.75 -0.796875 C 5.195312 -0.179688 4.460938 0.125 3.546875 0.125 C 2.617188 0.125 1.878906 -0.179688 1.328125 -0.796875 C 0.773438 -1.410156 0.5 -2.238281 0.5 -3.28125 C 0.5 -4.3125 0.773438 -5.132812 1.328125 -5.75 C 1.878906 -6.375 2.617188 -6.6875 3.546875 -6.6875 Z M 3.546875 -6.6875 "/>
</symbol>
</g>
</defs>
<g id="surface17417">
<rect x="0" y="0" width="300" height="300" style="fill:rgb(100%,100%,100%);fill-opacity:1;stroke:none;"/>
<path style="fill:none;stroke-width:1.2;stroke-linecap:butt;stroke-linejoin:miter;stroke:rgb(20%,80%,80%);stroke-opacity:1;stroke-miterlimit:10;" d="M 264.75 122.160156 L 255.128906 127.902344 "/>
<path style="fill:none;stroke-width:1.2;stroke-linecap:butt;stroke-linejoin:miter;stroke:rgb(0%,0%,0%);stroke-opacity:1;stroke-miterlimit:10;" d="M 255.128906 127.902344 L 245.507812 133.648438 "/>
<path style=" stroke:none;fill-rule:nonzero;fill:rgb(100%,100%,100%);fill-opacity:1;" d="M 261.75 116.660156 L 267.75 116.660156 L 267.75 127.660156 L 261.75 127.660156 Z M 261.75 116.660156 "/>
<g style="fill:rgb(20%,80%,80%);fill-opacity:1;">
  <use xlink:href="#glyph0-1" x="261.75" y="125.323242"/>
</g>
<path style="fill:none;stroke-width:1.2;stroke-linecap:butt;stroke-linejoin:miter;stroke:rgb(0%,0%,0%);stroke-opacity:1;stroke-miterlimit:10;" d="M 245.507812 133.648438 L 245.835938 156.058594 "/>
<path style="fill:none;stroke-width:1.2;stroke-linecap:butt;stroke-linejoin:miter;stroke:rgb(0%,0%,0%);stroke-opacity:1;stroke-miterlimit:10;" d="M 240.269531 135.964844 L 240.53125 153.894531 "/>
<path style="fill:none;stroke-width:1.2;stroke-linecap:butt;stroke-linejoin:miter;stroke:rgb(0%,0%,0%);stroke-opacity:1;stroke-miterlimit:10;" d="M 225.9375 122.730469 L 245.507812 133.648438 "/>
<path style="fill:none;stroke-width:1.2;stroke-linecap:butt;stroke-linejoin:miter;stroke:rgb(0%,0%,0%);stroke-opacity:1;stroke-miterlimit:10;" d="M 245.835938 156.058594 L 226.59375 167.546875 "/>
<path style="fill:none;stroke-width:1.2;stroke-linecap:butt;stroke-linejoin:miter;stroke:rgb(0%,0%,0%);stroke-opacity:1;stroke-miterlimit:10;" d="M 226.59375 167.546875 L 207.023438 156.625 "/>
<path style="fill:none;stroke-width:1.2;stroke-linecap:butt;stroke-linejoin:miter;stroke:rgb(0%,0%,0%);stroke-opacity:1;stroke-miterlimit:10;" d="M 227.207031 161.847656 L 211.550781 153.113281 "/>
<path style="fill:none;stroke-width:1.2;stroke-linecap:butt;stroke-linejoin:miter;stroke:rgb(0%,0%,0%);stroke-opacity:1;stroke-miterlimit:10;" d="M 207.023438 156.625 L 197.402344 162.371094 "/>
<path style="fill:none;stroke-width:1.2;stroke-linecap:butt;stroke-linejoin:miter;stroke:rgb(0%,0%,100%);stroke-opacity:1;stroke-miterlimit:10;" d="M 197.402344 162.371094 L 187.78125 168.117188 "/>
<path style="fill:none;stroke-width:1.2;stroke-linecap:butt;stroke-linejoin:miter;stroke:rgb(0%,0%,0%);stroke-opacity:1;stroke-miterlimit:10;" d="M 207.023438 156.625 L 206.695312 134.21875 "/>
<path style="fill:none;stroke-width:1.2;stroke-linecap:butt;stroke-linejoin:miter;stroke:rgb(0%,0%,100%);stroke-opacity:1;stroke-miterlimit:10;" d="M 187.78125 168.117188 L 185.765625 190.4375 "/>
<path style="fill:none;stroke-width:1.2;stroke-linecap:butt;stroke-linejoin:miter;stroke:rgb(0%,0%,0%);stroke-opacity:1;stroke-miterlimit:10;" d="M 167.175781 159.300781 L 177.476562 163.707031 "/>
<path style="fill:none;stroke-width:1.2;stroke-linecap:butt;stroke-linejoin:miter;stroke:rgb(0%,0%,100%);stroke-opacity:1;stroke-miterlimit:10;" d="M 177.476562 163.707031 L 187.78125 168.117188 "/>
<path style=" stroke:none;fill-rule:nonzero;fill:rgb(100%,100%,100%);fill-opacity:1;" d="M 184.78125 162.617188 L 191.78125 162.617188 L 191.78125 173.617188 L 184.78125 173.617188 Z M 184.78125 162.617188 "/>
<g style="fill:rgb(0%,0%,100%);fill-opacity:1;">
  <use xlink:href="#glyph0-2" x="184.78125" y="171.280273"/>
</g>
<path style="fill:none;stroke-width:1.2;stroke-linecap:butt;stroke-linejoin:miter;stroke:rgb(0%,0%,100%);stroke-opacity:1;stroke-miterlimit:10;" d="M 185.765625 190.4375 L 174.839844 192.925781 "/>
<path style="fill:none;stroke-width:1.2;stroke-linecap:butt;stroke-linejoin:miter;stroke:rgb(0%,0%,0%);stroke-opacity:1;stroke-miterlimit:10;" d="M 174.839844 192.925781 L 163.914062 195.417969 "/>
<path style="fill:none;stroke-width:1.2;stroke-linecap:butt;stroke-linejoin:miter;stroke:rgb(0%,0%,100%);stroke-opacity:1;stroke-miterlimit:10;" d="M 182.410156 185.792969 L 173.667969 187.785156 "/>
<path style="fill:none;stroke-width:1.2;stroke-linecap:butt;stroke-linejoin:miter;stroke:rgb(0%,0%,0%);stroke-opacity:1;stroke-miterlimit:10;" d="M 173.667969 187.785156 L 164.929688 189.777344 "/>
<path style=" stroke:none;fill-rule:nonzero;fill:rgb(100%,100%,100%);fill-opacity:1;" d="M 182.765625 184.9375 L 189.765625 184.9375 L 189.765625 195.9375 L 182.765625 195.9375 Z M 182.765625 184.9375 "/>
<g style="fill:rgb(0%,0%,100%);fill-opacity:1;">
  <use xlink:href="#glyph0-2" x="182.765625" y="193.600586"/>
</g>
<path style="fill:none;stroke-width:1.2;stroke-linecap:butt;stroke-linejoin:miter;stroke:rgb(0%,0%,0%);stroke-opacity:1;stroke-miterlimit:10;" d="M 163.914062 195.417969 L 152.425781 176.175781 "/>
<path style="fill:none;stroke-width:1.2;stroke-linecap:butt;stroke-linejoin:miter;stroke:rgb(0%,0%,0%);stroke-opacity:1;stroke-miterlimit:10;" d="M 152.425781 176.175781 L 167.175781 159.300781 "/>
<path style="fill:none;stroke-width:1.2;stroke-linecap:butt;stroke-linejoin:miter;stroke:rgb(0%,0%,0%);stroke-opacity:1;stroke-miterlimit:10;" d="M 149.929688 171.015625 L 161.730469 157.519531 "/>
<path style="fill:none;stroke-width:1.2;stroke-linecap:butt;stroke-linejoin:miter;stroke:rgb(0%,0%,0%);stroke-opacity:1;stroke-miterlimit:10;" d="M 130.4375 171.835938 L 152.425781 176.175781 "/>
<path style="fill:none;stroke-width:1.2;stroke-linecap:butt;stroke-linejoin:miter;stroke:rgb(0%,0%,0%);stroke-opacity:1;stroke-miterlimit:10;" d="M 167.175781 159.300781 L 159.9375 138.089844 "/>
<path style="fill:none;stroke-width:1.2;stroke-linecap:butt;stroke-linejoin:miter;stroke:rgb(0%,0%,0%);stroke-opacity:1;stroke-miterlimit:10;" d="M 159.9375 138.089844 L 148.945312 135.921875 "/>
<path style="fill:none;stroke-width:1.2;stroke-linecap:butt;stroke-linejoin:miter;stroke:rgb(0%,0%,100%);stroke-opacity:1;stroke-miterlimit:10;" d="M 148.945312 135.921875 L 137.949219 133.753906 "/>
<path style="fill:none;stroke-width:1.2;stroke-linecap:butt;stroke-linejoin:miter;stroke:rgb(0%,0%,0%);stroke-opacity:1;stroke-miterlimit:10;" d="M 156.71875 142.832031 L 147.921875 141.097656 "/>
<path style="fill:none;stroke-width:1.2;stroke-linecap:butt;stroke-linejoin:miter;stroke:rgb(0%,0%,100%);stroke-opacity:1;stroke-miterlimit:10;" d="M 147.921875 141.097656 L 139.128906 139.359375 "/>
<path style="fill:none;stroke-width:1.2;stroke-linecap:butt;stroke-linejoin:miter;stroke:rgb(0%,0%,0%);stroke-opacity:1;stroke-miterlimit:10;" d="M 159.9375 138.089844 L 174.6875 121.21875 "/>
<path style="fill:none;stroke-width:1.2;stroke-linecap:butt;stroke-linejoin:miter;stroke:rgb(0%,0%,100%);stroke-opacity:1;stroke-miterlimit:10;" d="M 137.949219 133.753906 L 123.199219 150.625 "/>
<path style=" stroke:none;fill-rule:nonzero;fill:rgb(100%,100%,100%);fill-opacity:1;" d="M 134.949219 128.253906 L 141.949219 128.253906 L 141.949219 139.253906 L 134.949219 139.253906 Z M 134.949219 128.253906 "/>
<g style="fill:rgb(0%,0%,100%);fill-opacity:1;">
  <use xlink:href="#glyph0-2" x="134.949219" y="136.916992"/>
</g>
<path style="fill:none;stroke-width:1.2;stroke-linecap:butt;stroke-linejoin:miter;stroke:rgb(0%,0%,100%);stroke-opacity:1;stroke-miterlimit:10;" d="M 123.199219 150.625 L 126.820312 161.230469 "/>
<path style="fill:none;stroke-width:1.2;stroke-linecap:butt;stroke-linejoin:miter;stroke:rgb(0%,0%,0%);stroke-opacity:1;stroke-miterlimit:10;" d="M 126.820312 161.230469 L 130.4375 171.835938 "/>
<path style="fill:none;stroke-width:1.2;stroke-linecap:butt;stroke-linejoin:miter;stroke:rgb(0%,0%,100%);stroke-opacity:1;stroke-miterlimit:10;" d="M 128.914062 151.046875 L 131.808594 159.527344 "/>
<path style="fill:none;stroke-width:1.2;stroke-linecap:butt;stroke-linejoin:miter;stroke:rgb(0%,0%,0%);stroke-opacity:1;stroke-miterlimit:10;" d="M 131.808594 159.527344 L 134.703125 168.011719 "/>
<path style=" stroke:none;fill-rule:nonzero;fill:rgb(100%,100%,100%);fill-opacity:1;" d="M 120.199219 145.125 L 127.199219 145.125 L 127.199219 156.125 L 120.199219 156.125 Z M 120.199219 145.125 "/>
<g style="fill:rgb(0%,0%,100%);fill-opacity:1;">
  <use xlink:href="#glyph0-2" x="120.199219" y="153.788086"/>
</g>
<path style="fill:none;stroke-width:1.2;stroke-linecap:butt;stroke-linejoin:miter;stroke:rgb(0%,0%,0%);stroke-opacity:1;stroke-miterlimit:10;" d="M 130.4375 171.835938 L 123.0625 180.273438 "/>
<path style="fill:none;stroke-width:1.2;stroke-linecap:butt;stroke-linejoin:miter;stroke:rgb(0%,0%,100%);stroke-opacity:1;stroke-miterlimit:10;" d="M 123.0625 180.273438 L 115.6875 188.710938 "/>
<path style="fill:none;stroke-width:1.2;stroke-linecap:butt;stroke-linejoin:miter;stroke:rgb(0%,0%,100%);stroke-opacity:1;stroke-miterlimit:10;" d="M 115.6875 188.710938 L 104.695312 186.542969 "/>
<path style="fill:none;stroke-width:1.2;stroke-linecap:butt;stroke-linejoin:miter;stroke:rgb(0%,0%,0%);stroke-opacity:1;stroke-miterlimit:10;" d="M 104.695312 186.542969 L 93.699219 184.375 "/>
<path style=" stroke:none;fill-rule:nonzero;fill:rgb(100%,100%,100%);fill-opacity:1;" d="M 108.6875 183.210938 L 122.6875 183.210938 L 122.6875 194.210938 L 108.6875 194.210938 Z M 108.6875 183.210938 "/>
<g style="fill:rgb(0%,0%,100%);fill-opacity:1;">
  <use xlink:href="#glyph0-2" x="108.6875" y="191.874023"/>
  <use xlink:href="#glyph0-3" x="115.665039" y="191.874023"/>
</g>
<path style="fill:none;stroke-width:1.2;stroke-linecap:butt;stroke-linejoin:miter;stroke:rgb(0%,0%,0%);stroke-opacity:1;stroke-miterlimit:10;" d="M 93.699219 184.375 L 86.460938 163.164062 "/>
<path style="fill:none;stroke-width:1.2;stroke-linecap:butt;stroke-linejoin:miter;stroke:rgb(0%,0%,0%);stroke-opacity:1;stroke-miterlimit:10;" d="M 87.984375 183.953125 L 82.195312 166.988281 "/>
<path style="fill:none;stroke-width:1.2;stroke-linecap:butt;stroke-linejoin:miter;stroke:rgb(0%,0%,0%);stroke-opacity:1;stroke-miterlimit:10;" d="M 78.949219 201.246094 L 93.699219 184.375 "/>
<path style="fill:none;stroke-width:1.2;stroke-linecap:butt;stroke-linejoin:miter;stroke:rgb(0%,0%,0%);stroke-opacity:1;stroke-miterlimit:10;" d="M 86.460938 163.164062 L 64.476562 158.824219 "/>
<path style="fill:none;stroke-width:1.2;stroke-linecap:butt;stroke-linejoin:miter;stroke:rgb(0%,0%,0%);stroke-opacity:1;stroke-miterlimit:10;" d="M 64.476562 158.824219 L 49.726562 175.699219 "/>
<path style="fill:none;stroke-width:1.2;stroke-linecap:butt;stroke-linejoin:miter;stroke:rgb(0%,0%,0%);stroke-opacity:1;stroke-miterlimit:10;" d="M 66.96875 163.984375 L 55.171875 177.480469 "/>
<path style="fill:none;stroke-width:1.2;stroke-linecap:butt;stroke-linejoin:miter;stroke:rgb(0%,0%,0%);stroke-opacity:1;stroke-miterlimit:10;" d="M 64.476562 158.824219 L 57.238281 137.613281 "/>
<path style="fill:none;stroke-width:1.2;stroke-linecap:butt;stroke-linejoin:miter;stroke:rgb(0%,0%,0%);stroke-opacity:1;stroke-miterlimit:10;" d="M 49.726562 175.699219 L 56.960938 196.910156 "/>
<path style="fill:none;stroke-width:1.2;stroke-linecap:butt;stroke-linejoin:miter;stroke:rgb(0%,0%,0%);stroke-opacity:1;stroke-miterlimit:10;" d="M 56.960938 196.910156 L 78.949219 201.246094 "/>
<path style="fill:none;stroke-width:1.2;stroke-linecap:butt;stroke-linejoin:miter;stroke:rgb(0%,0%,0%);stroke-opacity:1;stroke-miterlimit:10;" d="M 60.183594 192.167969 L 77.773438 195.640625 "/>
<path style="fill:none;stroke-width:1.2;stroke-linecap:butt;stroke-linejoin:miter;stroke:rgb(0%,0%,0%);stroke-opacity:1;stroke-miterlimit:10;" d="M 78.949219 201.246094 L 86.1875 222.457031 "/>
<path style="fill:none;stroke-width:1.2;stroke-linecap:butt;stroke-linejoin:miter;stroke:rgb(0%,0%,0%);stroke-opacity:1;stroke-miterlimit:10;" d="M 57.746094 135.027344 L 46.753906 132.859375 "/>
<path style="fill:none;stroke-width:1.2;stroke-linecap:butt;stroke-linejoin:miter;stroke:rgb(100%,0%,0%);stroke-opacity:1;stroke-miterlimit:10;" d="M 46.753906 132.859375 L 35.761719 130.691406 "/>
<path style="fill:none;stroke-width:1.2;stroke-linecap:butt;stroke-linejoin:miter;stroke:rgb(0%,0%,0%);stroke-opacity:1;stroke-miterlimit:10;" d="M 56.726562 140.203125 L 45.734375 138.03125 "/>
<path style="fill:none;stroke-width:1.2;stroke-linecap:butt;stroke-linejoin:miter;stroke:rgb(100%,0%,0%);stroke-opacity:1;stroke-miterlimit:10;" d="M 45.734375 138.03125 L 34.738281 135.863281 "/>
<path style="fill:none;stroke-width:1.2;stroke-linecap:butt;stroke-linejoin:miter;stroke:rgb(0%,0%,0%);stroke-opacity:1;stroke-miterlimit:10;" d="M 57.238281 137.613281 L 64.613281 129.179688 "/>
<path style="fill:none;stroke-width:1.2;stroke-linecap:butt;stroke-linejoin:miter;stroke:rgb(0%,0%,100%);stroke-opacity:1;stroke-miterlimit:10;" d="M 64.613281 129.179688 L 71.988281 120.742188 "/>
<path style=" stroke:none;fill-rule:nonzero;fill:rgb(100%,100%,100%);fill-opacity:1;" d="M 27.25 127.777344 L 35.25 127.777344 L 35.25 138.777344 L 27.25 138.777344 Z M 27.25 127.777344 "/>
<g style="fill:rgb(100%,0%,0%);fill-opacity:1;">
  <use xlink:href="#glyph0-4" x="27.25" y="136.44043"/>
</g>
<path style="fill:none;stroke-width:1.2;stroke-linecap:butt;stroke-linejoin:miter;stroke:rgb(0%,0%,100%);stroke-opacity:1;stroke-miterlimit:10;" d="M 71.988281 120.742188 L 68.367188 110.136719 "/>
<path style="fill:none;stroke-width:1.2;stroke-linecap:butt;stroke-linejoin:miter;stroke:rgb(0%,0%,0%);stroke-opacity:1;stroke-miterlimit:10;" d="M 68.367188 110.136719 L 64.75 99.53125 "/>
<path style=" stroke:none;fill-rule:nonzero;fill:rgb(100%,100%,100%);fill-opacity:1;" d="M 64.988281 115.242188 L 78.988281 115.242188 L 78.988281 126.242188 L 64.988281 126.242188 Z M 64.988281 115.242188 "/>
<g style="fill:rgb(0%,0%,100%);fill-opacity:1;">
  <use xlink:href="#glyph0-2" x="64.988281" y="123.905273"/>
  <use xlink:href="#glyph0-3" x="71.96582" y="123.905273"/>
</g>
<path style="fill:none;stroke-width:1.2;stroke-linecap:butt;stroke-linejoin:miter;stroke:rgb(0%,0%,0%);stroke-opacity:1;stroke-miterlimit:10;" d="M 64.75 99.53125 L 47.878906 84.78125 "/>
<path style="fill:none;stroke-width:1.2;stroke-linecap:butt;stroke-linejoin:miter;stroke:rgb(0%,0%,0%);stroke-opacity:1;stroke-miterlimit:10;" d="M 69.085938 77.542969 L 64.75 99.53125 "/>
<path style="fill:none;stroke-width:1.2;stroke-linecap:butt;stroke-linejoin:miter;stroke:rgb(0%,0%,0%);stroke-opacity:1;stroke-miterlimit:10;" d="M 47.878906 84.78125 L 69.085938 77.542969 "/>
<path style="fill:none;stroke-width:1.2;stroke-linecap:butt;stroke-linejoin:miter;stroke:rgb(0%,0%,0%);stroke-opacity:1;stroke-miterlimit:10;" d="M 206.695312 134.21875 L 225.9375 122.730469 "/>
<path style="fill:none;stroke-width:1.2;stroke-linecap:butt;stroke-linejoin:miter;stroke:rgb(0%,0%,0%);stroke-opacity:1;stroke-miterlimit:10;" d="M 211.320312 137.597656 L 226.714844 128.40625 "/>
</g>
</svg>

<svg xmlns="http://www.w3.org/2000/svg" xmlns:xlink="http://www.w3.org/1999/xlink" width="300pt" height="300pt" viewBox="0 0 300 300"><defs><symbol overflow="visible"><path d="M.453 1.594v-7.938h4.5v7.938zm.5-.5h3.5v-6.938h-3.5zm0 0"/></symbol><symbol overflow="visible" id="a"><path d="M.89-6.563h3.766v.75h-2.89v1.938h2.61v.734h-2.61V0H.89zm0 0"/></symbol><symbol overflow="visible" id="b"><path d="M.89-6.563H2.08l2.906 5.485v-5.484h.86V0H4.656L1.75-5.484V0H.89zm0 0"/></symbol><symbol overflow="visible" id="c"><path d="M.89-6.563h.876v2.688H5v-2.688h.89V0H5v-3.125H1.766V0H.89zm0 0"/></symbol><symbol overflow="visible" id="d"><path d="M3.547-5.953c-.65 0-1.164.242-1.547.72-.375.48-.563 1.13-.563 1.952 0 .835.188 1.49.563 1.967.383.48.898.72 1.547.72.644 0 1.156-.24 1.53-.72.376-.476.564-1.132.564-1.968 0-.822-.187-1.474-.562-1.954-.375-.477-.887-.72-1.53-.72zm0-.734c.914 0 1.648.312 2.203.937.55.617.828 1.438.828 2.47 0 1.042-.277 1.87-.828 2.483-.555.617-1.29.922-2.203.922-.93 0-1.668-.305-2.22-.922C.774-1.41.5-2.237.5-3.28c0-1.033.273-1.853.828-2.47.55-.625 1.29-.938 2.22-.938zm0 0"/></symbol></defs><g><path fill="#fff" d="M0 0h300v300H0z"/><path d="M264.75 122.16l-9.62 5.742" stroke-width="1.2" stroke="#3cc" stroke-miterlimit="10" fill="none"/><path d="M255.13 127.902l-9.622 5.746" stroke-width="1.2" stroke="#000" stroke-miterlimit="10" fill="none"/><path d="M261.75 116.66h6v11h-6zm0 0" fill="#fff"/><use xlink:href="#a" x="261.75" y="125.323" fill="#3cc"/><path d="M245.508 133.648l.328 22.41M240.27 135.965l.26 17.93M225.938 122.73l19.57 10.918M245.836 156.06l-19.242 11.487M226.594 167.547l-19.57-10.922M227.207 161.848l-15.656-8.735M207.023 156.625l-9.62 5.746" stroke-width="1.2" stroke="#000" stroke-miterlimit="10" fill="none"/><path d="M197.402 162.37l-9.62 5.747" stroke-width="1.2" stroke="#00f" stroke-miterlimit="10" fill="none"/><path d="M207.023 156.625l-.328-22.406" stroke-width="1.2" stroke="#000" stroke-miterlimit="10" fill="none"/><path d="M187.78 168.117l-2.014 22.32" stroke-width="1.2" stroke="#00f" stroke-miterlimit="10" fill="none"/><path d="M167.176 159.3l10.3 4.407" stroke-width="1.2" stroke="#000" stroke-miterlimit="10" fill="none"/><path d="M177.477 163.707l10.304 4.41" stroke-width="1.2" stroke="#00f" stroke-miterlimit="10" fill="none"/><path d="M184.78 162.617h7v11h-7zm0 0" fill="#fff"/><use xlink:href="#b" x="184.781" y="171.28" fill="#00f"/><path d="M185.766 190.438l-10.926 2.488" stroke-width="1.2" stroke="#00f" stroke-miterlimit="10" fill="none"/><path d="M174.84 192.926l-10.926 2.492" stroke-width="1.2" stroke="#000" stroke-miterlimit="10" fill="none"/><path d="M182.41 185.793l-8.742 1.992" stroke-width="1.2" stroke="#00f" stroke-miterlimit="10" fill="none"/><path d="M173.668 187.785l-8.738 1.992" stroke-width="1.2" stroke="#000" stroke-miterlimit="10" fill="none"/><path d="M182.766 184.938h7v11h-7zm0 0" fill="#fff"/><use xlink:href="#b" x="182.766" y="193.601" fill="#00f"/><path d="M163.914 195.418l-11.488-19.242M152.426 176.176l14.75-16.875M149.93 171.016l11.8-13.496M130.438 171.836l21.988 4.34M167.176 159.3l-7.238-21.21M159.938 138.09l-10.993-2.168" stroke-width="1.2" stroke="#000" stroke-miterlimit="10" fill="none"/><path d="M148.945 135.922l-10.996-2.168" stroke-width="1.2" stroke="#00f" stroke-miterlimit="10" fill="none"/><path d="M156.72 142.832l-8.798-1.734" stroke-width="1.2" stroke="#000" stroke-miterlimit="10" fill="none"/><path d="M147.922 141.098l-8.793-1.74" stroke-width="1.2" stroke="#00f" stroke-miterlimit="10" fill="none"/><path d="M159.938 138.09l14.75-16.87" stroke-width="1.2" stroke="#000" stroke-miterlimit="10" fill="none"/><path d="M137.95 133.754l-14.75 16.87" stroke-width="1.2" stroke="#00f" stroke-miterlimit="10" fill="none"/><path d="M134.95 128.254h7v11h-7zm0 0" fill="#fff"/><use xlink:href="#b" x="134.949" y="136.917" fill="#00f"/><path d="M123.2 150.625l3.62 10.605" stroke-width="1.2" stroke="#00f" stroke-miterlimit="10" fill="none"/><path d="M126.82 161.23l3.618 10.606" stroke-width="1.2" stroke="#000" stroke-miterlimit="10" fill="none"/><path d="M128.914 151.047l2.895 8.48" stroke-width="1.2" stroke="#00f" stroke-miterlimit="10" fill="none"/><path d="M131.81 159.527l2.893 8.485" stroke-width="1.2" stroke="#000" stroke-miterlimit="10" fill="none"/><path d="M120.2 145.125h7v11h-7zm0 0" fill="#fff"/><use xlink:href="#b" x="120.199" y="153.788" fill="#00f"/><path d="M130.438 171.836l-7.375 8.437" stroke-width="1.2" stroke="#000" stroke-miterlimit="10" fill="none"/><path d="M123.063 180.273l-7.376 8.438M115.688 188.71l-10.993-2.167" stroke-width="1.2" stroke="#00f" stroke-miterlimit="10" fill="none"/><path d="M104.695 186.543L93.7 184.375" stroke-width="1.2" stroke="#000" stroke-miterlimit="10" fill="none"/><path d="M108.688 183.21h14v11h-14zm0 0" fill="#fff"/><g fill="#00f"><use xlink:href="#b" x="108.688" y="191.874"/><use xlink:href="#c" x="115.665" y="191.874"/></g><path d="M93.7 184.375l-7.24-21.21M87.984 183.953l-5.79-16.965M78.95 201.246l14.75-16.87M86.46 163.164l-21.983-4.34M64.477 158.824L49.727 175.7M66.97 163.984L55.17 177.48M64.477 158.824l-7.24-21.21M49.727 175.7l7.234 21.21M56.96 196.91l21.99 4.336M60.184 192.168l17.59 3.473M78.95 201.246l7.237 21.21M57.746 135.027l-10.992-2.168" stroke-width="1.2" stroke="#000" stroke-miterlimit="10" fill="none"/><path d="M46.754 132.86l-10.992-2.17" stroke-width="1.2" stroke="#f00" stroke-miterlimit="10" fill="none"/><path d="M56.727 140.203l-10.993-2.172" stroke-width="1.2" stroke="#000" stroke-miterlimit="10" fill="none"/><path d="M45.734 138.03l-10.996-2.167" stroke-width="1.2" stroke="#f00" stroke-miterlimit="10" fill="none"/><path d="M57.238 137.613l7.375-8.433" stroke-width="1.2" stroke="#000" stroke-miterlimit="10" fill="none"/><path d="M64.613 129.18l7.375-8.438" stroke-width="1.2" stroke="#00f" stroke-miterlimit="10" fill="none"/><path d="M27.25 127.777h8v11h-8zm0 0" fill="#fff"/><use xlink:href="#d" x="27.25" y="136.44" fill="#f00"/><path d="M71.988 120.742l-3.62-10.605" stroke-width="1.2" stroke="#00f" stroke-miterlimit="10" fill="none"/><path d="M68.367 110.137L64.75 99.53" stroke-width="1.2" stroke="#000" stroke-miterlimit="10" fill="none"/><path d="M64.988 115.242h14v11h-14zm0 0" fill="#fff"/><g fill="#00f"><use xlink:href="#b" x="64.988" y="123.905"/><use xlink:href="#c" x="71.966" y="123.905"/></g><path d="M64.75 99.53L47.88 84.78M69.086 77.543L64.75 99.53M47.88 84.78l21.206-7.237M206.695 134.22l19.243-11.49M211.32 137.598l15.395-9.192" stroke-width="1.2" stroke="#000" stroke-miterlimit="10" fill="none"/></g></svg>
